icons/columns-24.svg

<svg width="24" height="25" viewBox="0 0 24 25" fill="none" xmlns="http://www.w3.org/2000/svg">
<path fill-rule="evenodd" clip-rule="evenodd" d="M2 4.25C2 3.2835 2.7835 2.5 3.75 2.5H9.25C10.2165 2.5 11 3.2835 11 4.25V20.75C11 21.7165 10.2165 22.5 9.25 22.5H3.75C2.7835 22.5 2 21.7165 2 20.75V4.25ZM3.75 4C3.61193 4 3.5 4.11193 3.5 4.25V20.75C3.5 20.8881 3.61193 21 3.75 21H9.25C9.38807 21 9.5 20.8881 9.5 20.75V4.25C9.5 4.11193 9.38807 4 9.25 4H3.75Z" fill="black"/>
<path fill-rule="evenodd" clip-rule="evenodd" d="M13 4.25C13 3.2835 13.7835 2.5 14.75 2.5H20.25C21.2165 2.5 22 3.2835 22 4.25V20.75C22 21.7165 21.2165 22.5 20.25 22.5H14.75C13.7835 22.5 13 21.7165 13 20.75V4.25ZM14.75 4C14.6119 4 14.5 4.11193 14.5 4.25V20.75C14.5 20.8881 14.6119 21 14.75 21H20.25C20.3881 21 20.5 20.8881 20.5 20.75V4.25C20.5 4.11193 20.3881 4 20.25 4H14.75Z" fill="black"/>
</svg>

<svg xmlns="http://www.w3.org/2000/svg" width="24" height="25" viewBox="0 0 24 25"><path fill-rule="evenodd" d="M2 4.25c0-.966.784-1.75 1.75-1.75h5.5c.966 0 1.75.784 1.75 1.75v16.5a1.75 1.75 0 01-1.75 1.75h-5.5A1.75 1.75 0 012 20.75V4.25zM3.75 4a.25.25 0 00-.25.25v16.5c0 .138.112.25.25.25h5.5a.25.25 0 00.25-.25V4.25A.25.25 0 009.25 4h-5.5zm9.25.25c0-.966.784-1.75 1.75-1.75h5.5c.966 0 1.75.784 1.75 1.75v16.5a1.75 1.75 0 01-1.75 1.75h-5.5A1.75 1.75 0 0113 20.75V4.25zM14.75 4a.25.25 0 00-.25.25v16.5c0 .138.112.25.25.25h5.5a.25.25 0 00.25-.25V4.25a.25.25 0 00-.25-.25h-5.5z"/></svg>
